files/2024-06-05/svg/work/rootan.svg

<?xml version="1.0" encoding="UTF-8" standalone="no"?>
<!-- Created with Inkscape (http://www.inkscape.org/) -->

<svg
   width="48"
   height="48"
   viewBox="0 0 48 48"
   version="1.1"
   id="svg1"
   xml:space="preserve"
   inkscape:version="1.3.2 (091e20e, 2023-11-25, custom)"
   sodipodi:docname="rootan.svg"
   xmlns:inkscape="http://www.inkscape.org/namespaces/inkscape"
   xmlns:sodipodi="http://sodipodi.sourceforge.net/DTD/sodipodi-0.dtd"
   xmlns="http://www.w3.org/2000/svg"
   xmlns:svg="http://www.w3.org/2000/svg"><sodipodi:namedview
     id="namedview1"
     pagecolor="#505050"
     bordercolor="#eeeeee"
     borderopacity="1"
     inkscape:showpageshadow="0"
     inkscape:pageopacity="0"
     inkscape:pagecheckerboard="0"
     inkscape:deskcolor="#505050"
     inkscape:document-units="px"
     inkscape:zoom="12.683728"
     inkscape:cx="7.4899115"
     inkscape:cy="22.82452"
     inkscape:window-width="1920"
     inkscape:window-height="1057"
     inkscape:window-x="-8"
     inkscape:window-y="-8"
     inkscape:window-maximized="1"
     inkscape:current-layer="svg1" /><defs
     id="defs1" /><path
     id="path10-0-8"
     style="fill:none;stroke:#ffffff;stroke-width:1;stroke-linecap:round;stroke-linejoin:round;stroke-opacity:1"
     d="m 17.716878,11.346293 0.91547,1.149512 m 11.650773,-1.149512 -0.915469,1.149512 m -15.23331,4.634386 1.437301,0.306836 m 18.294015,-0.306836 -1.437302,0.306836 m -17.449461,6.315232 1.314165,-0.657883 m 16.728045,0.657883 -1.314166,-0.657883 M 24.000081,9.1512499 23.999919,10.620638 m 0.05993,17.698658 v 8.305301 M 38.837159,21.794132 A 14.837158,14.833979 0 0 1 24,36.628111 14.837158,14.833979 0 0 1 9.1628418,21.794132 14.837158,14.833979 0 0 1 24,6.9601523 14.837158,14.833979 0 0 1 38.837159,21.794132 Z m -16.692948,3.705282 v 1.974892 h 0.821999 l 0.251632,0.844884 h 1.564316 l 0.251632,-0.844884 h 0.822 V 25.499414 Z M 6.5357712,21.960493 C 6.5357711,12.317329 14.354773,4.5000003 24,4.5000006 c 9.645227,0 17.464229,7.8173284 17.464229,17.4604924 v 0 c 0,6.532902 -4.232258,11.58856 -9.454179,15.515649 L 24,43.500012 16.047826,37.505872 C 10.81157,33.558919 6.5357708,28.516793 6.5357712,21.960493 Z M 23.581247,25.506887 A 6.1733832,6.1720624 0 0 1 17.826618,19.349041 6.1733832,6.1720624 0 0 1 24,13.176978 a 6.1733832,6.1720624 0 0 1 6.173383,6.172063 v 0 a 6.1733832,6.1720624 0 0 1 -5.75463,6.157846" /></svg>

<?xml version="1.0" encoding="UTF-8"?>
<svg width="48" height="48" version="1.1" viewBox="0 0 48 48" xml:space="preserve" xmlns="http://www.w3.org/2000/svg"><path d="m17.717 11.346 0.91547 1.1495m11.651-1.1495-0.91547 1.1495m-15.233 4.6344 1.4373 0.30684m18.294-0.30684-1.4373 0.30684m-17.449 6.3152 1.3142-0.65788m16.728 0.65788-1.3142-0.65788m-7.7069-13.943-1.62e-4 1.4694m0.05993 17.699v8.3053m14.777-14.83a14.837 14.834 0 0 1-14.837 14.834 14.837 14.834 0 0 1-14.837-14.834 14.837 14.834 0 0 1 14.837-14.834 14.837 14.834 0 0 1 14.837 14.834zm-16.693 3.7053v1.9749h0.822l0.25163 0.84488h1.5643l0.25163-0.84488h0.822v-1.9749zm-15.608-3.5389c-1e-7 -9.6432 7.819-17.46 17.464-17.46 9.6452 0 17.464 7.8173 17.464 17.46v0c0 6.5329-4.2323 11.589-9.4542 15.516l-8.01 6.0239-7.9522-5.9941c-5.2363-3.947-9.5121-8.9891-9.5121-15.545zm17.045 3.5464a6.1734 6.1721 0 0 1-5.7546-6.1578 6.1734 6.1721 0 0 1 6.1734-6.1721 6.1734 6.1721 0 0 1 6.1734 6.1721v0a6.1734 6.1721 0 0 1-5.7546 6.1578" fill="none" stroke="#fff" stroke-linecap="round" stroke-linejoin="round"/></svg>
